X: 4232
T: DOWN THE ROAD
R: Jig
%R: jig
B: James Kerr "Merry Melodies" v.4 p.25 #232
Z: 2016 John Chambers <jc:trillian.mit.edu>
M: 6/8
L: 1/8
K: A
|:\
EFE c3 | BAB cde | EFE c3 | BAB cAF |\
EFE c3 | BAB cde | fga aec | B3 A3 :|
|:\
agf edc | f2f f2e | agf edc | BcB efg |\
agf edc | f2f f2e | fga aec | B3 A3 :|

%%sep 1 1 500
%%sep 1 1 500

